X:25
T:Nineteenth Century. JJo.025
S:J.Jones MS,1801,N.Shrops.
N:Could be played as a reel or as a hornpipe. NeilB
A:N Shropshire
R:.Hornpipe
Z:Neil Brookes 2006
M:4/4
L:1/8
Q:1/2=90
K:C
ef|gecG ecGE|GFAF D2 de|fedc Bfed|cBdBG2 ef|!
gecG ecGE|GFAF D2 de|fedc Bagf|e2c2c2:|!
|:ef|ged^c dfag|fedc Bdgf|feag fedc|cBdBG2 ef|!
gecG ecGE|GFAF D2 de|fedc Bagf|e2c2c2:|

